X: 205
U:~=!turn!
M:C
L:1/8
K:G
d | BG-GD B,G,GB, | CA,AG FDAc | BG-GD B,G,DB, | CEDF GG,G,d | (B/A/G/F/) GD B,G,DB, |
(g/f/g/a/) gd edcB | cATdc B(GGd) | (g/f/g/a/) gd BGdB | c<ATa>g fd-df | gbab gdeB | cAdc BGG |]


